X:138
T:Shandon Bells
Z: id:dc-jig-116
M:6/8
L:1/8
K:D Major
B|AFD DFA|ded cBA|BGE EFA|B2A Bcd|!
AFD DFA|ded cBA|Bcd ecA|dfe d2:|!
g|fdd Add|faa afd|cAA EAA|cAc efg|!
fdd Add|faa afd|Bcd ecA|dfe d2:|!

